source/img/icon-sprite/logo-mishka-footer.svg

<svg width="102" height="34" viewBox="0 0 102 34" fill="none" xmlns="http://www.w3.org/2000/svg">
<path d="M19.2694 21.3813C19.1691 18.6962 18.7681 16.1105 18.7681 13.4255C18.7681 11.2376 19.1691 9.04976 18.3671 6.96135C18.3671 6.76246 18.4673 6.46411 18.4673 6.26522C18.6678 5.27074 15.1589 5.76798 14.6576 6.76246C14.3569 7.0608 14.1564 7.35914 14.2566 7.75694C14.2566 7.85638 14.3569 7.95583 14.3569 8.05528C13.6551 11.2376 12.7528 14.3205 11.7503 17.4034C11.3492 18.5967 10.848 19.6907 10.4469 20.884C9.84542 19.7901 9.24389 18.6962 8.84287 17.5028C7.4393 14.1216 6.23625 10.6409 4.53192 7.35914C4.73243 5.86743 1.32377 5.96688 0.621988 7.35914C-0.180049 9.04976 -0.0797945 10.7404 0.220969 12.5304C0.521733 14.5194 0.621988 16.5083 0.621988 18.5967C0.621988 22.5746 1.02301 26.4531 1.02301 30.431C0.621988 30.8288 0.521733 31.326 0.922752 31.8233C1.12326 32.0222 1.32377 32.2211 1.52428 32.3205C2.52683 33.0167 5.13345 32.42 5.13345 31.0277C5.13345 26.9503 4.83268 22.873 4.73243 18.6962C4.73243 18.2984 4.73243 17.9006 4.73243 17.5028C4.83268 17.6023 4.83268 17.8012 4.93294 17.9006C5.53447 19.4918 6.23625 21.0829 7.13854 22.5746C8.04083 24.0664 8.44185 25.6575 8.94312 27.2487C8.74261 27.4476 8.64236 27.7459 8.74262 27.9448C8.74262 28.1437 8.84287 28.2432 9.04338 28.3426C9.64491 28.8399 10.848 28.641 11.5497 28.3426C11.8505 28.2432 12.1513 28.0443 12.3518 27.9448C12.6525 27.7459 13.2541 27.2487 13.0536 26.7514C13.0536 26.652 12.9533 26.5526 12.9533 26.4531C13.4546 25.1603 13.6551 23.8675 13.9559 22.5746C14.2566 21.1824 14.7579 19.7901 15.2592 18.4973C15.3594 19.094 15.3594 19.6907 15.4597 20.3868C15.6602 22.9724 15.4597 25.4586 15.4597 27.9448C15.4597 28.7404 15.5599 29.536 15.6602 30.431C15.7604 30.7294 16.0612 32.2211 15.9609 32.3205C15.1589 32.8178 15.3594 33.4144 16.1615 33.6133C17.0638 33.8122 18.2668 33.5139 18.9686 32.9172C20.1716 31.8233 19.5701 30.1327 19.3696 28.7404C18.8683 26.3537 19.3696 23.768 19.2694 21.3813Z" fill="currentColor"/>
<path d="M27.6907 22.0774C27.5905 20.0884 26.8887 18.1989 26.8887 16.21C26.8887 13.9227 27.0892 11.6354 26.6882 9.34808C26.5879 8.65195 22.5777 9.44753 22.7783 10.3426C23.079 12.431 22.9788 14.5194 22.9788 16.7072C22.9788 18.6962 23.48 20.5857 23.6805 22.5746C23.9813 24.663 23.5803 26.7514 23.7808 28.7404C23.8811 29.7349 24.5828 31.4255 23.8811 32.3205C23.48 32.8177 25.3849 32.6189 25.4851 32.6189C26.2872 32.5194 27.2897 32.2211 27.791 31.6244C28.4928 30.8288 27.9915 29.2376 27.8912 28.2432C27.5905 26.2542 27.791 24.0663 27.6907 22.0774Z" fill="currentColor"/>
<path d="M44.0323 18.7959C41.9269 16.0113 38.1172 18.0003 35.4104 17.3042C34.0068 16.9064 34.0068 15.0169 34.0068 13.9229C34.0068 12.5307 33.9065 11.2379 33.706 9.84559C33.6058 8.75166 33.706 7.75719 34.4078 6.96161C34.5081 6.86216 35.3101 6.66326 35.2099 6.66326C35.6109 6.56381 35.9116 6.56381 36.3127 6.56381C37.8165 6.46437 40.9244 6.76271 40.3228 9.05001C40.0221 10.0445 43.932 9.4478 44.2328 8.45332C45.4358 3.87873 36.9142 4.77376 34.5081 5.37044C32.3025 5.96713 29.8964 7.1605 29.6959 9.74614C29.5956 10.9395 29.9966 12.1329 29.9966 13.3263C30.0969 14.7185 29.7961 16.1108 30.2974 17.4036C31.4002 20.387 35.8114 18.9948 38.1172 19.0942C41.9269 19.3926 40.8241 24.5639 40.8241 26.9506C40.8241 28.2434 42.0272 30.3318 41.0246 31.4257C40.4231 32.1219 39.0195 32.1219 38.2175 32.2213C37.4155 32.3208 36.0119 32.5197 35.5106 31.7241C34.5081 30.3318 35.6109 27.9451 35.4104 26.3539C35.3101 25.4589 31.2999 26.2545 31.5004 27.3484C31.8012 29.934 30.0969 33.4147 33.9066 33.9119C36.3127 34.2103 39.1198 33.713 41.4256 33.0169C42.6287 32.6191 43.7315 32.1219 44.6338 31.2268C45.6363 30.3318 45.3356 28.9396 45.0348 27.7462C44.5335 24.6633 45.9371 21.2821 44.0323 18.7959Z" fill="currentColor"/>
<path d="M61.4765 18.5964C61.3763 14.8174 60.7748 11.1378 60.7748 7.3588C60.7748 5.36985 56.7646 6.06598 56.7646 7.65715C56.7646 11.2373 57.2658 14.8174 57.4663 18.3975C57.4663 18.4969 57.4663 18.4969 57.4663 18.5964C55.5615 18.5964 53.5564 18.7953 51.5513 18.7953C51.7518 14.2207 50.9498 9.6461 51.1503 4.97206C51.1503 4.37537 47.2404 4.87261 47.2404 5.96653C47.0399 10.4417 47.8419 14.8174 47.7416 19.2925C47.6414 21.3809 47.5411 23.5688 47.4409 25.6572C47.4409 26.7511 47.6414 27.845 47.7416 28.939C47.8419 29.9334 48.2429 31.2263 47.9422 32.2207C47.7416 33.0163 51.5513 32.5191 51.8521 31.5246C52.3534 29.7345 51.6516 27.5467 51.4511 25.7566C51.2506 24.066 51.4511 22.276 51.5513 20.5854C53.5564 20.4859 55.6618 20.287 57.6669 20.5854C57.7671 21.9776 57.8674 23.3699 57.9676 24.6627C58.0679 25.8561 58.1681 26.95 58.1681 28.1434C58.1681 29.1379 58.2684 30.6296 57.9676 31.624C57.1656 33.7125 61.0755 33.5136 61.677 32.0218C62.3788 30.1323 62.1783 27.845 62.0781 25.8561C61.8776 23.3699 61.4765 20.9831 61.4765 18.5964Z" fill="currentColor"/>
<path d="M78.4196 22.9724C77.5173 20.1879 76.0135 17.8011 74.8104 15.2155C75.8129 13.326 76.8155 11.337 77.7178 9.34806C78.5198 7.558 79.1214 5.56905 80.8257 4.27623C81.4272 3.87844 81.4272 3.3812 80.5249 3.28175C79.6226 3.1823 78.4196 3.48065 77.7178 3.97788C76.3142 5.2707 75.3117 6.66297 74.6099 8.35358C73.7076 10.442 72.7051 12.4309 71.7025 14.4199C71.6023 14.5193 71.6023 14.7182 71.502 14.8177C71.0007 15.116 70.7 15.6133 70.9005 16.1105C70.0984 17.7017 69.2964 19.1934 68.3941 20.6851C68.0933 15.2155 67.3916 9.6464 67.191 4.17678C67.191 2.88396 63.1809 3.67954 63.2811 5.17126C63.4816 12.0331 64.4842 18.7956 64.5844 25.6575C64.5844 25.6575 64.5844 25.6575 64.5844 25.7569C64.2837 26.0553 64.3839 26.2542 64.6847 26.3536C64.6847 28.1437 64.5844 29.8343 64.4842 31.6243C63.9829 32.3205 64.9854 32.7183 65.587 32.7183H65.6872C66.389 32.7183 68.2938 32.4199 68.3941 31.326C68.5946 29.2376 68.6949 27.1492 68.5946 25.0608C70.1987 23.3702 71.502 21.4807 72.7051 19.4917C73.5071 20.9834 74.2089 22.4752 74.7101 24.0663C75.6124 26.7514 77.016 29.3371 77.818 32.0221C78.3193 33.8122 82.3295 32.7183 81.728 31.0277C80.7254 28.2431 79.3219 25.7569 78.4196 22.9724Z" fill="currentColor"/>
<path d="M101.979 18.3978C101.779 17.6022 100.576 17.6022 99.6736 17.6022C99.6736 17.3039 99.6736 16.9061 99.6736 16.6077C99.5733 13.9226 99.4731 11.2375 99.2725 8.65191C99.072 6.16572 97.6685 5.37013 95.2624 5.46958C92.8562 5.56903 90.0491 5.96682 87.7433 6.86185C85.1366 7.85633 83.6328 9.74583 83.1315 12.5304C82.6303 15.5138 83.3321 18.6961 83.5326 21.6796C83.7331 25.1602 83.6328 28.6409 83.6328 32.1216C83.6328 32.7183 87.5427 32.1216 87.5427 31.1271C87.5427 28.3426 87.5427 25.558 87.5427 22.8729C87.5427 22.0774 87.4425 21.2818 87.4425 20.4862C88.8461 19.8895 91.1519 20.4862 92.5555 20.5856C93.6583 20.6851 94.7611 20.3867 95.7636 20.2873C95.7636 22.5746 95.8639 24.8619 95.9641 27.1492C95.9641 28.3426 96.4654 30.6299 95.5631 31.6243C95.1621 32.1216 97.0669 31.9227 97.1672 31.9227C97.9692 31.8232 98.9718 31.5249 99.4731 30.9282C100.375 29.8343 99.9743 27.1492 99.8741 25.8564C99.7738 23.9669 99.7738 22.0774 99.7738 20.1878C100.877 19.9889 102.18 19.2928 101.979 18.3978ZM87.3422 18.2983C87.242 17.105 87.1417 15.8121 87.0415 14.6188C86.841 12.3315 87.1417 9.0497 89.3473 7.65743C89.9489 7.25964 91.0517 7.35909 91.7534 7.25964C92.756 7.06075 93.7585 6.86185 94.5606 7.45854C95.7636 8.25412 95.4629 11.1381 95.4629 12.3315C95.4629 14.3204 95.6634 16.3094 95.7636 18.2983C95.1621 18.3978 94.6608 18.3978 94.0593 18.3978C91.7534 18.1989 89.4476 17.8011 87.3422 18.2983Z" fill="currentColor"/>
<path d="M24.2821 6.663C24.7833 6.56355 25.2846 6.4641 25.7859 6.16576C25.8861 6.06631 25.9864 5.96686 25.9864 5.96686C26.4877 5.66852 26.9889 5.17128 26.6882 4.57459C26.1869 3.48067 26.2871 2.38675 26.2871 1.19337C26.2871 0.198895 25.2846 0 24.4826 0C23.7808 0.0994477 22.277 0.596686 22.277 1.49172C22.277 2.48619 22.1767 3.48067 22.3772 4.47515C22.3772 4.57459 22.277 4.67404 22.277 4.87294C22.1767 5.07183 22.277 5.27073 22.3772 5.46962V5.56907C22.3772 5.66852 22.3772 5.76797 22.3772 5.86742C22.4775 6.06631 22.5777 6.26521 22.7782 6.36465C23.3798 6.663 23.881 6.663 24.2821 6.663Z" fill="currentColor"/>
</svg>

<svg viewBox="0 0 102 34" fill="none" xmlns="http://www.w3.org/2000/svg"><path d="M19.27 21.381c-.1-2.685-.502-5.27-.502-7.956 0-2.187.401-4.375-.4-6.464 0-.199.1-.497.1-.696.2-.994-3.31-.497-3.81.497-.301.299-.502.597-.401.995 0 .1.1.199.1.298-.702 3.183-1.604 6.265-2.607 9.348-.4 1.194-.902 2.288-1.303 3.481-.602-1.094-1.203-2.188-1.604-3.381-1.404-3.381-2.607-6.862-4.311-10.144.2-1.492-3.208-1.392-3.91 0C-.18 9.05-.08 10.74.221 12.53c.3 1.99.401 3.978.401 6.067 0 3.978.401 7.856.401 11.834-.401.398-.501.895-.1 1.392.2.2.4.398.601.498 1.003.696 3.61.099 3.61-1.293 0-4.078-.301-8.155-.402-12.332v-1.193c.1.1.1.298.2.398.602 1.59 1.304 3.182 2.207 4.674.902 1.491 1.303 3.082 1.804 4.674-.2.199-.3.497-.2.696 0 .199.1.298.3.398.602.497 1.805.298 2.507 0 .3-.1.601-.299.802-.398.3-.2.902-.696.702-1.194 0-.099-.1-.198-.1-.298.5-1.293.701-2.585 1.002-3.878.3-1.393.802-2.785 1.303-4.078.1.597.1 1.194.2 1.89.201 2.585 0 5.072 0 7.558 0 .795.1 1.591.201 2.486.1.298.401 1.79.3 1.89-.801.497-.6 1.093.201 1.292.903.2 2.106-.1 2.808-.696 1.203-1.094.601-2.784.4-4.177-.5-2.386 0-4.972-.1-7.359Z" fill="currentColor"/><path d="M27.69 22.077c-.1-1.989-.801-3.878-.801-5.867 0-2.287.2-4.575-.2-6.862-.101-.696-4.111.1-3.91.995.3 2.088.2 4.176.2 6.364 0 1.99.501 3.879.701 5.868.301 2.088-.1 4.176.1 6.165.101.995.803 2.686.101 3.58-.401.498 1.504.299 1.604.299.802-.1 1.805-.398 2.306-.995.702-.795.2-2.386.1-3.38-.3-1.99-.1-4.178-.2-6.167Z" fill="currentColor"/><path d="M44.032 18.796c-2.105-2.785-5.915-.796-8.622-1.492-1.403-.398-1.403-2.287-1.403-3.381 0-1.392-.1-2.685-.301-4.077-.1-1.094 0-2.089.702-2.884.1-.1.902-.299.802-.299.4-.1.702-.1 1.103-.1 1.503-.099 4.611.2 4.01 2.487-.3.994 3.609.398 3.91-.597 1.203-4.574-7.319-3.68-9.725-3.083-2.206.597-4.612 1.79-4.812 4.376-.1 1.194.3 2.387.3 3.58.1 1.393-.2 2.785.301 4.078 1.103 2.983 5.514 1.59 7.82 1.69 3.81.299 2.707 5.47 2.707 7.857 0 1.292 1.203 3.38.2 4.475-.6.696-2.005.696-2.806.795-.803.1-2.206.299-2.707-.497-1.003-1.392.1-3.779-.1-5.37-.1-.895-4.111-.1-3.91.994.3 2.586-1.404 6.067 2.406 6.564 2.406.298 5.213-.199 7.519-.895 1.203-.398 2.305-.895 3.208-1.79 1.002-.895.702-2.287.4-3.48-.5-3.084.903-6.465-1.002-8.951Z" fill="currentColor"/><path d="M61.477 18.596c-.1-3.779-.702-7.458-.702-11.237 0-1.99-4.01-1.293-4.01.298 0 3.58.5 7.16.701 10.74v.2c-1.904 0-3.91.198-5.915.198.2-4.574-.601-9.149-.4-13.823 0-.597-3.91-.1-3.91.995-.201 4.475.6 8.85.5 13.326-.1 2.088-.2 4.276-.3 6.364 0 1.094.2 2.188.3 3.282.1.994.502 2.287.201 3.282-.2.795 3.61.298 3.91-.696.501-1.79-.2-3.978-.4-5.768-.201-1.691 0-3.481.1-5.172 2.004-.1 4.11-.298 6.115 0 .1 1.393.2 2.785.3 4.078.1 1.193.201 2.287.201 3.48 0 .995.1 2.487-.2 3.481-.802 2.088 3.107 1.89 3.709.398.702-1.89.501-4.177.401-6.166-.2-2.486-.602-4.873-.602-7.26Z" fill="currentColor"/><path d="M78.42 22.972c-.903-2.784-2.407-5.17-3.61-7.757a106.742 106.742 0 0 0 2.908-5.867c.802-1.79 1.403-3.779 3.108-5.072.601-.398.601-.895-.301-.994-.902-.1-2.105.199-2.807.696-1.404 1.293-2.406 2.685-3.108 4.376-.902 2.088-1.905 4.077-2.907 6.066-.1.1-.1.298-.201.398-.501.298-.802.795-.602 1.292a66.867 66.867 0 0 1-2.506 4.575c-.3-5.47-1.002-11.039-1.203-16.508 0-1.293-4.01-.497-3.91.994.2 6.862 1.203 13.625 1.303 20.486v.1c-.3.298-.2.497.1.597 0 1.79-.1 3.48-.2 5.27-.501.697.501 1.094 1.103 1.094h.1c.702 0 2.607-.298 2.707-1.392.2-2.088.3-4.177.2-6.265 1.605-1.69 2.908-3.58 4.111-5.57.802 1.492 1.504 2.984 2.005 4.575.902 2.685 2.306 5.271 3.108 7.956.501 1.79 4.511.696 3.91-.994-1.003-2.785-2.406-5.271-3.308-8.056Z" fill="currentColor"/><path d="M101.979 18.398c-.2-.796-1.403-.796-2.305-.796v-.994c-.1-2.685-.2-5.37-.402-7.956-.2-2.486-1.604-3.282-4.01-3.182-2.406.099-5.213.497-7.519 1.392-2.606.994-4.11 2.884-4.611 5.668-.502 2.984.2 6.166.4 9.15.201 3.48.1 6.96.1 10.442 0 .596 3.91 0 3.91-.995v-8.254c0-.796-.1-1.591-.1-2.387 1.404-.596 3.71 0 5.114.1 1.102.1 2.205-.2 3.208-.299 0 2.288.1 4.575.2 6.862 0 1.194.501 3.48-.4 4.475-.402.498 1.503.299 1.603.299.802-.1 1.805-.398 2.306-.995.902-1.094.501-3.779.401-5.072-.1-1.89-.1-3.779-.1-5.668 1.103-.2 2.406-.895 2.205-1.79Zm-14.637-.1c-.1-1.193-.2-2.486-.3-3.68-.201-2.287.1-5.568 2.305-6.96.602-.398 1.705-.299 2.406-.398 1.003-.2 2.005-.398 2.808.199 1.203.795.902 3.68.902 4.873 0 1.988.2 3.977.3 5.966-.6.1-1.102.1-1.704.1-2.306-.2-4.611-.597-6.717-.1Z" fill="currentColor"/><path d="M24.282 6.663c.501-.1 1.003-.199 1.504-.497l.2-.2c.502-.297 1.003-.795.702-1.391-.501-1.094-.4-2.188-.4-3.382C26.287.2 25.284 0 24.482 0c-.702.1-2.206.597-2.206 1.492 0 .994-.1 1.989.1 2.983 0 .1-.1.199-.1.398-.1.199 0 .398.1.597v.397c.1.2.2.398.401.498.602.298 1.103.298 1.504.298Z" fill="currentColor"/></svg>
